X:1
T:Black Joke
O:Stanton Harcourt
M:6/8
L:1/8
Q:1/4=100
P:A(AB2)4A
K:G
P:A
|:G|\
D2G GFG|A2A AGA|BcB BAG|ABA AGF|G2G E2D|DEF G2:|
P:B
B|\
B2d ded|efg d2B|B2d ded|efg d2B|
cca BBg|ABA AGA|BcB BAG|ABA AGF|G2G E2D|DEF G2|]
</abc>
